trafik_levhalari/trafik_tanzim/67.svg

<svg viewBox="0 0 474.14 759.26" xmlns="http://www.w3.org/2000/svg"><defs><style>.cls-1,.cls-4{fill:#00408c;}.cls-1,.cls-4,.cls-5{fill-rule:evenodd;}.cls-1{isolation:isolate;}.cls-2,.cls-5{fill:#fff;}.cls-3{fill:#fd7215;}</style></defs><g data-name="Layer 2"><path class="cls-1" d="M30.94,0H443.2a30.87,30.87,0,0,1,30.94,30.94V728.32a30.87,30.87,0,0,1-30.94,30.94H30.94A30.87,30.87,0,0,1,0,728.32V30.94A30.87,30.87,0,0,1,30.94,0Z"/><path class="cls-2" d="M28.06,750.15A21.62,21.62,0,0,1,9.5,731.38c-.25-2-.25-700.87,0-702.91a21.37,21.37,0,0,1,4.9-11.25A21.94,21.94,0,0,1,26.58,9.91c1.24-.3,9.35-.31,210-.37,148.45,0,208.29,0,209.44.14a21.5,21.5,0,0,1,19,18.79c.25,2,.25,700.87,0,702.91a21.53,21.53,0,0,1-18.79,18.78c-1.82.23-416.41.22-418.17,0Zm419-7.29a14.87,14.87,0,0,0,10.64-10.72l.39-1.53V29.24l-.39-1.53A14.63,14.63,0,0,0,447.06,17l-1.6-.4H237.81c-197.32,0-208.65,0-209.91.29a14.39,14.39,0,0,0-7.23,4,14.77,14.77,0,0,0-4,7.06c-.28,1.09-.3,13.48-.35,211.62,0,139.39,0,489.26.12,490.39a13.52,13.52,0,0,0,1.45,5.3,14.51,14.51,0,0,0,11.38,7.94c.61.07,94.74.12,209.17.11l207.14,0Z"/><rect class="cls-2" x="64.77" y="56.27" width="344.61" height="646.72"/><rect class="cls-3" x="124.31" y="73.51" width="225.53" height="191.71"/><path d="m124.31 73.51v191.71h225.52v-191.71zm7.48 184.23v-176.74h210.56v176.74z"/><polygon points="349.83 280.26 124.31 280.26 124.31 280.26 124.31 280.26 124.31 284.08 349.83 284.08 349.83 284.08 349.83 284.08"/><polygon points="323.57 299.12 323.57 299.12 323.57 323.55 305.99 323.55 305.99 323.55 251.63 323.55 251.52 323.2 251 321.56 250.04 319.65 250.04 319.65 248.85 317.98 248.85 317.98 248.35 317.39 247.5 316.39 247.5 316.39 247.5 316.39 245.82 315.12 245.82 315.12 245.56 314.94 244.07 314 244.07 314 242.16 313.13 242.16 313.13 242.16 313.13 242.16 313.13 242.16 313.13 240.17 312.57 240.17 312.57 238.1 312.25 236.03 312.25 233.97 312.57 233.97 312.57 231.98 313.13 231.98 313.13 230.07 314 230.07 314 230.07 314 228.24 315.12 228.24 315.12 226.65 316.39 226.65 316.39 226.65 316.39 226.64 316.39 226.4 316.68 225.29 317.98 225.29 317.98 224.1 319.65 224.1 319.65 223.14 321.56 222.51 323.55 150.57 323.55 150.57 299.12 124.31 299.12 124.31 323.55 124.31 323.55 124.31 331.03 124.31 355.46 150.57 355.46 150.57 331.03 222.51 331.03 222.63 331.41 223.14 333.02 223.14 333.02 224.1 334.85 224.87 335.99 225.29 336.61 225.29 336.61 226.64 338.12 226.65 338.12 228.24 339.47 228.24 339.47 228.24 339.47 228.24 339.47 228.97 339.91 230.07 340.58 230.07 340.58 230.07 340.58 230.07 340.58 230.07 340.58 231.98 341.46 232.93 341.72 233.97 342.01 233.97 342.01 236.03 342.25 238.1 342.25 240.17 342.01 240.17 342.01 241.31 341.69 242.16 341.46 244.07 340.58 244.07 340.58 245.16 339.89 245.82 339.47 245.82 339.47 245.82 339.47 245.82 339.47 247.5 338.12 247.5 338.12 248.39 337.12 248.85 336.61 248.85 336.61 248.85 336.61 248.85 336.6 250.04 334.85 250.04 334.85 251 333.02 251 333.02 251.46 331.58 251.63 331.03 305.99 331.03 305.99 331.03 323.57 331.03 323.57 355.46 323.57 355.46 349.83 355.46 349.83 331.03 349.83 331.03 349.83 326.26 349.83 323.55 349.83 323.55 349.83 299.12"/><path class="cls-4" d="m237.07 677.9a113.87 113.87 0 0 1-113.86-113.9 113.86 113.86 0 0 1 113.86-113.83 113.86 113.86 0 0 1 113.86 113.83 113.87 113.87 0 0 1-113.86 113.9"/><path class="cls-5" d="m287.39 553a2.16 2.16 0 0 0-0.35-1.13l-48.3-72.13-48.5 72.26a1.85 1.85 0 0 0 2 2.86l33.27-7.54v101.38h26.27v-101.47l33.22 7.51a1.82 1.82 0 0 0 2.35-1.75z"/><path class="cls-5" d="M347.09,564a110,110,0,1,0-110,110,110.06,110.06,0,0,0,110-110Zm-3.79,0A106.24,106.24,0,1,1,237.06,457.79,106.21,106.21,0,0,1,343.3,564Z"/></g></svg>

<svg xmlns="http://www.w3.org/2000/svg" viewBox="0 0 474.14 759.26"><defs><style>.cls-1,.cls-4{fill:#00408c;}.cls-1,.cls-4,.cls-5{fill-rule:evenodd;}.cls-1{isolation:isolate;}.cls-2,.cls-5{fill:#fff;}.cls-3{fill:#fd7215;}</style></defs><title>Asset 2</title><g id="Layer_2" data-name="Layer 2"><g id="svg2"><g id="g8435"><path id="rect9000" class="cls-1" d="M30.94,0H443.2a30.87,30.87,0,0,1,30.94,30.94V728.32a30.87,30.87,0,0,1-30.94,30.94H30.94A30.87,30.87,0,0,1,0,728.32V30.94A30.87,30.87,0,0,1,30.94,0Z"/><path id="path9038" class="cls-2" d="M28.06,750.15A21.62,21.62,0,0,1,9.5,731.38c-.25-2-.25-700.87,0-702.91a21.37,21.37,0,0,1,4.9-11.25A21.94,21.94,0,0,1,26.58,9.91c1.24-.3,9.35-.31,210-.37,148.45,0,208.29,0,209.44.14a21.5,21.5,0,0,1,19,18.79c.25,2,.25,700.87,0,702.91a21.53,21.53,0,0,1-18.79,18.78c-1.82.23-416.41.22-418.17,0Zm419-7.29a14.87,14.87,0,0,0,10.64-10.72l.39-1.53V29.24l-.39-1.53A14.63,14.63,0,0,0,447.06,17l-1.6-.4H237.81c-197.32,0-208.65,0-209.91.29a14.39,14.39,0,0,0-7.23,4,14.77,14.77,0,0,0-4,7.06c-.28,1.09-.3,13.48-.35,211.62,0,139.39,0,489.26.12,490.39a13.52,13.52,0,0,0,1.45,5.3,14.51,14.51,0,0,0,11.38,7.94c.61.07,94.74.12,209.17.11l207.14,0Z"/></g><rect class="cls-2" x="64.77" y="56.27" width="344.61" height="646.72"/><rect class="cls-3" x="124.31" y="73.51" width="225.53" height="191.71"/><path d="M124.31,73.51V81h0V257.74h0v7.48H349.83V81h0V73.51Zm7.48,184.23V81H342.35V257.74Z"/><polygon points="349.83 280.26 124.31 280.26 124.31 280.26 124.31 280.26 124.31 284.08 349.83 284.08 349.83 284.08 349.83 284.08 349.83 280.26"/><polygon points="323.57 299.12 323.57 299.12 323.57 323.55 305.99 323.55 305.99 323.55 251.63 323.55 251.52 323.2 251 321.56 250.04 319.65 250.04 319.65 248.85 317.98 248.85 317.98 248.35 317.39 247.5 316.39 247.5 316.39 247.5 316.39 245.82 315.12 245.82 315.12 245.56 314.94 244.07 314 244.07 314 242.16 313.13 242.16 313.13 242.16 313.13 242.16 313.13 242.16 313.13 240.17 312.57 240.17 312.57 238.1 312.25 236.03 312.25 233.97 312.57 233.97 312.57 231.98 313.13 231.98 313.13 230.07 314 230.07 314 230.07 314 228.24 315.12 228.24 315.12 226.65 316.39 226.65 316.39 226.65 316.39 226.64 316.39 226.4 316.68 225.29 317.98 225.29 317.98 224.1 319.65 224.1 319.65 223.14 321.56 222.51 323.55 150.57 323.55 150.57 299.12 124.31 299.12 124.31 323.55 124.31 323.55 124.31 331.03 124.31 355.46 150.57 355.46 150.57 331.03 222.51 331.03 222.63 331.41 223.14 333.02 223.14 333.02 224.1 334.85 224.87 335.99 225.29 336.61 225.29 336.61 226.64 338.12 226.65 338.12 228.24 339.47 228.24 339.47 228.24 339.47 228.24 339.47 228.97 339.91 230.07 340.58 230.07 340.58 230.07 340.58 230.07 340.58 230.07 340.58 231.98 341.46 232.93 341.72 233.97 342.01 233.97 342.01 236.03 342.25 238.1 342.25 240.17 342.01 240.17 342.01 241.31 341.69 242.16 341.46 244.07 340.58 244.07 340.58 245.16 339.89 245.82 339.47 245.82 339.47 245.82 339.47 245.82 339.47 247.5 338.12 247.5 338.12 248.39 337.12 248.85 336.61 248.85 336.61 248.85 336.61 248.85 336.6 250.04 334.85 250.04 334.85 251 333.02 251 333.02 251.46 331.58 251.63 331.03 305.99 331.03 305.99 331.03 323.57 331.03 323.57 355.46 323.57 355.46 349.83 355.46 349.83 331.03 349.83 331.03 349.83 326.26 349.83 323.55 349.83 323.55 349.83 299.12 323.57 299.12"/><g id="layer1"><g id="layer1-9"><path id="path13683-5" class="cls-4" d="M237.07,677.9A113.87,113.87,0,0,1,123.21,564h0A113.86,113.86,0,0,1,237.07,450.17h0A113.86,113.86,0,0,1,350.93,564h0A113.87,113.87,0,0,1,237.07,677.9h0"/><path id="rect45018-4" class="cls-5" d="M287.39,553a2.16,2.16,0,0,0-.35-1.13l-48.3-72.13L190.24,552a1.85,1.85,0,0,0,2,2.86l33.27-7.54V648.7h0l26.27,0V547.23L285,554.74a1.82,1.82,0,0,0,2.35-1.75Z"/><path id="path13685-1" class="cls-5" d="M347.09,564a110,110,0,1,0-110,110,110.06,110.06,0,0,0,110-110Zm-3.79,0A106.24,106.24,0,1,1,237.06,457.79,106.21,106.21,0,0,1,343.3,564Z"/></g></g></g></g></svg>
